X:745
%%etbk:tnset id:351,pos:2,rep:3x,ant:
%%etbk:wsite https://thesession.org/tunes/10881
%%etbk:video src:ytube,cde:frH7A7a00NY,desc:
%%etbk:pldat 2016-08-06T15:37,2016-07-23T16:28,2016-07-23T16:22,2015-05-31T15:29,2015-05-25T14:59
T: Slide From Grace
Z: Piano Box Version by Martin Fleischmann
H: Created 2015-05-25 /  Last Modified 2016-07-23
R: slip jig
M: 9/8
L: 1/8
K: Bmin
|:"bmin"!3!d2!2!B B!1!AB def|d2B B!1!A!2!F !1!A2B|d2B BAB def|1"f#min"!5!f2e e2d dBA:|2 "A"!3!f2 e-e2 d !2!e!3!f!4!a||
"D"b2f afe def| AAA AFA !2!d!3!f!4!a|!5!b2f afe def|"A"f2 e-e2 d efa|
"D"b2f afe def|AAA AFA !3!de!5!f|"A"!4!e2d efA Bd!4!e|z!3!f!4!a !5!baf e2 f||


